;FLAVOR:Marlin
;TIME:3018
;Filament used: 1.72502m
;Layer height: 0.16
;MINX:95.945
;MINY:92.679
;MINZ:0.2
;MAXX:134.916
;MAXY:118.919
;MAXZ:14.04
;TARGET_MACHINE.NAME:Artillery Hornet
;Generated with Cura_SteamEngine 5.8.1
M140 S60
M105
M190 S60
M104 S200
M105
M109 S200
M82 ;absolute extrusion mode
G28 ; home all axes
 M117 Purge extruder
 G92 E0 ; reset extruder
 G1 Z1.0 F3000 ; move z up little to prevent scratching of surface
 G1 X2 Y20 Z0.3 F5000.0 ; move to start-line position
 G1 X2 Y200.0 Z0.3 F1500.0 E15 ; draw 1st line
 G1 X2 Y200.0 Z0.4 F5000.0 ; move to side a little
 G1 X2 Y20 Z0.4 F1500.0 E30 ; draw 2nd line
 G92 E0 ; reset extruder
 G1 Z1.0 F3000 ; move z up little to prevent scratching of surface
G92 E0
G92 E0
G1 F1500 E-2
;LAYER_COUNT:84
;LAYER:0
M107
G1 F300 Z0.4
G0 F6000 X95.945 Y104.628 Z0.4
;TYPE:SKIRT
G1 F300 Z0.2
G1 F1500 E0
G1 F1200 X96.069 Y104.684 E0.00498
G1 X96.214 Y104.697 E0.0103
G1 X96.595 Y104.6 E0.02469
G1 X97.499 Y104.6 E0.05776
G1 X98.22 Y106.453 E0.13051
G1 X98.775 Y108.43 E0.20563
G1 X98.693 Y108.528 E0.21031
G1 X98.642 Y108.649 E0.21511
G1 X98.648 Y108.722 E0.21779
G1 X98.358 Y108.747 E0.22844
G1 X97.864 Y108.645 E0.2469
G1 X97.459 Y108.419 E0.26387
G1 X97.175 Y108.179 E0.27747
G1 X96.852 Y107.762 E0.29677
G1 X96.711 Y107.476 E0.30843
G1 X96.375 Y106.52 E0.34551
G1 X95.986 Y105.479 E0.38617
G1 X95.945 Y104.628 E0.41734
G0 F6000 X96.408 Y105.102
G1 F1200 X96.653 Y105.04 E0.42658
G1 X97.198 Y105.04 E0.44652
G1 X97.803 Y106.593 E0.5075
G1 X98.277 Y108.281 E0.57165
G1 X98.02 Y108.228 E0.58125
G1 X97.711 Y108.055 E0.5942
G1 X97.493 Y107.872 E0.60462
G1 X97.229 Y107.531 E0.62039
G1 X97.116 Y107.301 E0.62977
G1 X96.79 Y106.374 E0.66572
G1 X96.785 Y106.362 E0.6662
G1 X96.422 Y105.389 E0.70419
G1 X96.408 Y105.102 E0.7147
G1 F1500 E-1.2853
G1 F300 Z0.4
G0 F6000 X97.385 Y106.733 Z0.4
G1 F300 Z0.2
G1 F1500 E0.7147
G1 F1200 X97.395 Y106.767 E0.716
G1 X97.359 Y106.668 E0.71985
G1 X97.385 Y106.733 E0.72242
G1 F1500 E-1.27758
G1 F300 Z0.4
G0 F6000 X106.844 Y106.613 Z0.4
G1 F300 Z0.2
G1 F1500 E0.72242
G1 F1200 X106.815 Y105.929 E0.74746
G1 X106.912 Y105.317 E0.77013
G1 X107.305 Y104.305 E0.80985
G1 X108.079 Y103.328 E0.85545
G1 X108.666 Y102.952 E0.88096
G1 X109.55 Y102.77 E0.91398
G1 X109.54 Y102.827 E0.9161
G1 X109.582 Y103.001 E0.92265
G1 X109.665 Y103.108 E0.9276
G1 X109.108 Y105.097 E1.00317
G1 X108.369 Y106.998 E1.07779
G1 X107.49 Y106.998 E1.10995
G1 X107.428 Y106.977 E1.11234
G1 X107.399 Y106.969 E1.11344
G1 X107.084 Y106.91 E1.12517
G1 X106.957 Y106.924 E1.12984
G1 X106.891 Y106.952 E1.13247
G1 X106.844 Y106.613 E1.14499
G0 F6000 X107.279 Y106.498
G1 F1200 X107.256 Y105.96 E1.16469
G1 X107.34 Y105.429 E1.18436
G1 X107.691 Y104.527 E1.21977
G1 X108.378 Y103.659 E1.26027
G1 X108.835 Y103.367 E1.28011
G1 X109.153 Y103.301 E1.29199
G1 X108.686 Y104.97 E1.3554
G1 X108.069 Y106.558 E1.41773
G1 X107.562 Y106.558 E1.43628
G1 X107.48 Y106.536 E1.43939
G1 X107.279 Y106.498 E1.44687
G0 F6000 X107.703 Y106.118
G1 F1200 X107.698 Y105.981 E1.45189
G1 X107.767 Y105.546 E1.468
G1 X108.077 Y104.748 E1.49932
G1 X108.409 Y104.328 E1.51891
G1 X108.271 Y104.824 E1.53775
G1 X107.768 Y106.118 E1.58854
G1 X107.703 Y106.118 E1.59092
G1 F1500 E-0.40908
G1 F300 Z0.4
G0 F6000 X121.197 Y108.526 Z0.4
G1 F300 Z0.2
G1 F1500 E1.59092
G1 F1200 X121.767 Y106.488 E1.66834
G1 X122.502 Y104.6 E1.74247
G1 X123.419 Y104.6 E1.77601
G1 X123.444 Y104.607 E1.77696
G1 X123.46 Y104.611 E1.77757
G1 X123.81 Y104.681 E1.79063
G1 X123.951 Y104.662 E1.79583
G1 X123.988 Y104.643 E1.79735
G1 X124.154 Y105.129 E1.81614
G1 X124.129 Y105.876 E1.84349
G1 X123.982 Y106.338 E1.86123
G1 X123.453 Y107.386 E1.90418
G1 X122.842 Y108.228 E1.94224
G1 X122.26 Y108.635 E1.96822
G1 X121.316 Y108.871 E2.00382
G1 X121.326 Y108.805 E2.00626
G1 X121.283 Y108.639 E2.01254
G1 X121.197 Y108.526 E2.01773
G0 F6000 X121.712 Y108.318
G1 F1200 X122.188 Y106.619 E2.08229
G1 X122.803 Y105.04 E2.14428
G1 X123.365 Y105.04 E2.16484
G1 X123.374 Y105.042 E2.16518
G1 X123.679 Y105.103 E2.17656
G1 X123.711 Y105.196 E2.18016
G1 X123.691 Y105.803 E2.20238
G1 X123.575 Y106.166 E2.21632
G1 X123.075 Y107.157 E2.25693
G1 X122.529 Y107.91 E2.29096
G1 X122.074 Y108.227 E2.31125
G1 X121.712 Y108.318 E2.32491
G0 F6000 X122.469 Y107.243
G1 F1200 X122.601 Y106.77 E2.34287
G1 X123.104 Y105.48 E2.39353
G1 X123.262 Y105.48 E2.39931
G1 X123.254 Y105.725 E2.40828
G1 X123.167 Y105.998 E2.41876
G1 X122.697 Y106.93 E2.45695
G1 X122.469 Y107.243 E2.47112
G1 F1500 E0.47112
G1 F300 Z0.4
G0 F6000 X132.653 Y105.148 Z0.4
G1 F300 Z0.2
G1 F1500 E2.47112
G1 F1200 X132.094 Y103.158 E2.54674
G1 X132.173 Y103.071 E2.55104
G1 X132.228 Y102.952 E2.55584
G1 X132.223 Y102.87 E2.55884
G1 X132.22 Y102.859 E2.55926
G1 X132.445 Y102.824 E2.56759
G1 X132.914 Y102.888 E2.58491
G1 X133.411 Y103.166 E2.60574
G1 X133.722 Y103.431 E2.62069
G1 X133.989 Y103.77 E2.63648
G1 X134.162 Y104.104 E2.65024
G1 X134.535 Y105.182 E2.69198
G1 X134.889 Y106.159 E2.73
G1 X134.916 Y106.959 E2.75928
G1 X134.81 Y106.929 E2.76331
G1 X134.709 Y106.925 E2.76701
G1 X134.324 Y106.998 E2.78135
G1 X133.373 Y106.998 E2.81614
G1 X132.653 Y105.148 E2.88877
G0 F6000 X133.069 Y105.005
G1 F1200 X132.587 Y103.287 E2.95405
G1 X132.772 Y103.312 E2.96088
G1 X133.157 Y103.528 E2.97703
G1 X133.405 Y103.74 E2.98897
G1 X133.617 Y104.009 E3.0015
G1 X133.756 Y104.277 E3.01254
G1 X134.119 Y105.326 E3.05316
G1 X134.123 Y105.335 E3.05352
G1 X134.451 Y106.241 E3.08877
G1 X134.461 Y106.525 E3.09917
G1 X134.284 Y106.558 E3.10575
G1 X133.674 Y106.558 E3.12807
G1 X133.069 Y105.005 E3.18905
G0 F6000 X133.488 Y104.868
G1 F1200 X133.46 Y104.767 E3.19288
G1 X133.547 Y105.018 E3.2026
G1 X133.488 Y104.868 E3.2085
G1 F1500 E1.2085
G1 F300 Z0.4
;MESH:BraquetMotorProFast-BraquetMotor001BraquetMotor.stl
G0 F6000 X118.796 Y108.535 Z0.4
;TYPE:WALL-INNER
G1 F300 Z0.2
G1 F1500 E3.2085
G1 F802.4 X118.73 Y108.873 E3.22734
G0 F6000 X118.796 Y108.535
G1 F874.2 X119.072 Y107.746 E3.26932
G1 F1068.8 X119.349 Y106.956 E3.30371
G1 F1200 X119.66 Y105.844 E3.34595
G1 X120.753 Y103.029 E3.45644
G1 X121.115 Y102.6 E3.47697
G1 F990.6 X121.559 Y102.31 E3.50048
G1 F847.5 X122.558 Y102.31 E3.55223
G1 F851.6 X122.558 Y101.69 E3.58419
G1 F843.5 X121.487 Y101.696 E3.63994
G1 F985.1 X120.799 Y101.6 E3.6709
G1 F1200 X118.848 Y101.6 E3.74228
G1 X118.848 Y106.76 E3.93106
G1 F1068.8 X118.822 Y107.647 E3.96751
G1 F874.2 X118.796 Y108.535 E4.01213
G1 F1500 E2.01213
G1 F300 Z0.4
G0 F6000 X110 Y114.944 Z0.4
G1 F300 Z0.2
G1 F1500 E4.01213
G1 F1200 X111.355 Y114.944 E4.0617
G1 X114.034 Y115.321 E4.16068
G1 X116.636 Y116.069 E4.25974
G1 X118.574 Y116.933 E4.33737
G1 X118.435 Y116.463 E4.3553
G1 X118.14 Y114.54 E4.42648
G1 X118.38 Y111.476 E4.53892
G1 F1227.9 X118.558 Y110.521 E4.57365
G1 F1367.9 X118.803 Y109.33 E4.61268
G1 F1045.5 X118.73 Y108.873 E4.63211
G1 X118.461 Y109.251 E4.6516
G1 F1346.9 X118.125 Y110.531 E4.69473
G1 F1211 X117.248 Y112.245 E4.76453
G1 F1200 X116.026 Y113.791 E4.83663
G1 X115.668 Y114.017 E4.85212
G1 X115.248 Y114.1 E4.86778
G1 X104.748 Y114.1 E5.25194
G1 X104.328 Y114.018 E5.26759
G1 X103.97 Y113.791 E5.2831
G1 X102.749 Y112.244 E5.35521
G1 F1211 X101.876 Y110.537 E5.42471
G1 F1343.5 X101.532 Y109.235 E5.46872
G1 F1043.5 X101.262 Y108.857 E5.48827
G1 X101.189 Y109.314 E5.50774
G1 F1367.9 X101.438 Y110.521 E5.54729
G1 F1227.9 X101.629 Y111.584 E5.58591
G1 F1200 X101.854 Y114.541 E5.69441
G1 X101.562 Y116.463 E5.76553
G1 X101.422 Y116.933 E5.78347
G1 X103.365 Y116.066 E5.86132
G1 X105.956 Y115.322 E5.95994
G1 X108.641 Y114.944 E6.05914
G1 X110 Y114.944 E6.10887
G1 F1500 E4.10887
G1 F300 Z0.4
G0 F6000 X101.262 Y108.857 Z0.4
G1 F300 Z0.2
G1 F1500 E6.10887
G1 F806.1 X101.208 Y108.578 E6.12434
G0 F6000 X101.216 Y108.593
G1 F1073.2 X101.148 Y106.776 E6.19873
G1 F1200 X101.148 Y101.6 E6.3881
G1 X99.198 Y101.6 E6.45944
G1 F996.2 X98.248 Y101.69 E6.50149
G1 F851.6 X97.438 Y101.69 E6.54325
G1 X97.438 Y102.31 E6.57522
G1 X98.248 Y102.31 E6.61697
G1 F996.2 X98.881 Y102.6 E6.64766
G1 F1200 X99.243 Y103.029 E6.66819
G1 X100.289 Y105.699 E6.77311
G1 X100.651 Y106.973 E6.82156
G1 F1084.2 X100.918 Y107.755 E6.85503
G1 F908.8 X101.186 Y108.538 E6.89501
G1 F901 X101.216 Y108.593 E6.89806
G1 F1500 E4.89806
G1 F300 Z0.4
G0 F6000 X110 Y115.387 Z0.4
G1 F300 Z0.2
G1 F1500 E6.89806
G1 F1200 X111.321 Y115.384 E6.94639
G1 X113.987 Y115.765 E7.04492
G1 X116.439 Y116.469 E7.13825
G1 X118.849 Y117.537 E7.2347
G1 X119.294 Y117.809 E7.25378
G1 X118.859 Y116.328 E7.31025
G1 X118.583 Y114.521 E7.37713
G1 X118.805 Y111.617 E7.48368
G1 X119.309 Y108.745 E7.59037
G1 X120.084 Y105.962 E7.69606
G1 X121.151 Y103.217 E7.80381
G1 X121.368 Y102.96 E7.81611
G1 X121.658 Y102.84 E7.8276
G1 X123.088 Y102.84 E7.87992
G1 X123.088 Y101.16 E7.94138
G1 X118.408 Y101.16 E8.1126
G1 X118.406 Y106.822 E8.31975
G1 X118.24 Y108.579 E8.38432
G1 X117.727 Y110.346 E8.45164
G1 X116.872 Y112.011 E8.52012
G1 X115.715 Y113.475 E8.58839
G1 X115.5 Y113.61 E8.59768
G1 X115.248 Y113.66 E8.60707
G1 X104.748 Y113.66 E8.99123
G1 X104.496 Y113.611 E9.00062
G1 X104.281 Y113.474 E9.00995
G1 X103.12 Y112.004 E9.07848
G1 X102.271 Y110.346 E9.14663
G1 X101.757 Y108.579 E9.21396
G1 X101.588 Y106.776 E9.28021
G1 X101.588 Y101.16 E9.48568
G1 X96.908 Y101.16 E9.6569
G1 X96.908 Y102.84 E9.71837
G1 X98.248 Y102.84 E9.76739
G1 X98.628 Y102.96 E9.78197
G1 X98.845 Y103.217 E9.79428
G1 X99.9 Y105.922 E9.90051
G1 X100.678 Y108.705 E10.00623
G1 X101.191 Y111.617 E10.11441
G1 X101.412 Y114.525 E10.22111
G1 X101.137 Y116.328 E10.28784
G1 X100.704 Y117.806 E10.34418
G1 X101.147 Y117.537 E10.36314
G1 X103.557 Y116.469 E10.45959
G1 X106.009 Y115.765 E10.55292
G1 X108.632 Y115.39 E10.64986
G1 X110 Y115.387 E10.69991
G0 F6000 X110 Y115.826
;TYPE:WALL-OUTER
G1 F1200 X111.303 Y115.826 E10.74758
G1 X113.865 Y116.188 E10.84225
G1 X116.319 Y116.893 E10.93566
G1 X118.697 Y117.953 E11.03092
G1 X120.238 Y118.917 E11.09742
G1 X119.812 Y118.001 E11.13438
G1 X119.294 Y116.262 E11.20076
G1 X119.029 Y114.526 E11.26501
G1 X119.244 Y111.651 E11.37049
G1 X119.748 Y108.8 E11.47642
G1 X120.508 Y106.08 E11.57974
G1 X121.549 Y103.405 E11.68476
G1 X121.71 Y103.283 E11.69215
G1 X123.281 Y103.28 E11.74963
G1 X123.446 Y103.199 E11.75635
G1 X123.528 Y103.03 E11.76322
G1 X123.528 Y100.72 E11.84774
G1 X117.968 Y100.72 E12.05116
G1 X117.968 Y106.781 E12.27291
G1 X117.806 Y108.503 E12.33619
G1 X117.312 Y110.196 E12.40071
G1 X116.489 Y111.785 E12.46618
G1 X115.396 Y113.163 E12.53053
G1 X115.248 Y113.22 E12.53633
G1 X104.687 Y113.22 E12.92272
G1 X104.587 Y113.151 E12.92716
G1 X103.507 Y111.785 E12.99087
G1 X102.68 Y110.182 E13.05686
G1 X102.188 Y108.485 E13.12151
G1 X102.028 Y106.776 E13.18431
G1 X102.028 Y100.72 E13.40587
G1 X96.468 Y100.72 E13.60929
G1 X96.468 Y102.97 E13.69161
G1 X96.503 Y103.117 E13.69714
G1 X96.578 Y103.212 E13.70157
G1 X96.715 Y103.28 E13.70716
G1 X98.248 Y103.28 E13.76325
G1 X98.375 Y103.32 E13.76812
G1 X98.447 Y103.405 E13.7722
G1 X99.476 Y106.04 E13.87569
G1 X100.253 Y108.821 E13.98133
G1 X100.752 Y111.651 E14.08647
G1 X100.968 Y114.489 E14.1906
G1 X100.702 Y116.262 E14.2562
G1 X100.196 Y117.971 E14.3214
G1 X99.759 Y118.919 E14.3596
G1 X101.299 Y117.953 E14.42611
G1 X103.679 Y116.892 E14.52144
G1 X106.131 Y116.188 E14.61477
G1 X108.693 Y115.826 E14.70944
G1 X110 Y115.826 E14.75726
G0 F6000 X110 Y114.645
;TYPE:SKIN
G1 F2146.3 X108.614 Y114.645 E14.78561
G1 F1885.7 X107.692 Y114.742 E14.80719
G1 F1526 X106.769 Y114.839 E14.83389
G1 F1278.5 X105.846 Y114.937 E14.86577
G1 F1191.9 X103.235 Y115.688 E14.96585
G1 F1200 X101.997 Y116.24 E15.01544
G1 X102.228 Y114.716 E15.07183
G1 X102.24 Y114.411 E15.083
G1 X102.037 Y111.719 E15.18177
G1 X102.427 Y112.477 E15.21296
G1 X103.699 Y114.079 E15.2878
G1 X104.175 Y114.388 E15.30856
G1 X104.705 Y114.492 E15.32832
G1 F1191.9 X105.785 Y114.5 E15.3681
G1 F1278.5 X106.722 Y114.467 E15.4003
G1 F1526 X107.659 Y114.433 E15.42728
G1 F1885.7 X108.597 Y114.399 E15.44913
G1 F2137.7 X111.398 Y114.399 E15.50666
G1 F1892.5 X112.311 Y114.431 E15.52785
G1 F1543.9 X113.224 Y114.463 E15.55383
G1 F1300.5 X114.137 Y114.495 E15.58467
G1 F1202.7 X115.284 Y114.492 E15.62654
G1 F1200 X115.822 Y114.384 E15.64662
G1 X116.289 Y114.086 E15.66688
G1 X117.486 Y112.581 E15.73724
G1 X117.649 Y112.328 E15.74825
G1 X117.957 Y111.719 E15.77322
G1 X117.744 Y114.531 E15.87639
G1 X118 Y116.242 E15.93969
G1 X116.745 Y115.684 E15.98994
G1 F1202.7 X114.137 Y114.937 E16.08897
G1 F1300.5 X113.219 Y114.84 E16.12013
G1 F1543.9 X112.3 Y114.743 E16.14641
G1 F1892.5 X111.381 Y114.645 E16.16785
G1 F2146.3 X110 Y114.645 E16.1961
G1 F1500 E14.1961
G1 F300 Z0.4
G0 F6000 X102.644 Y115.711 Z0.4
G1 F300 Z0.2
G1 F1500 E16.1961
G1 F1200 X102.345 Y115.413 E16.21154
G0 F6000 X102.427 Y114.872
G1 F1200 X103.076 Y115.521 E16.24512
G0 F6000 X103.547 Y115.369
G1 F1200 X102.45 Y114.273 E16.30185
G0 F6000 X102.399 Y113.6
G1 F1200 X104.03 Y115.23 E16.38622
G0 F6000 X104.513 Y115.091
G1 F1200 X103.88 Y114.458 E16.41897
G0 F6000 X104.761 Y114.717
G1 F1200 X104.995 Y114.951 E16.43108
G0 F6000 X105.387 Y114.721
G1 F1200 X105.478 Y114.812 E16.43579
G1 F1500 E14.43579
G1 F300 Z0.4
G0 F6000 X103.083 Y113.661 Z0.4
G1 F300 Z0.2
G1 F1500 E16.43579
G1 F1200 X102.347 Y112.926 E16.47384
G1 F1500 E14.47384
G1 F300 Z0.4
G0 F6000 X114.715 Y114.715 Z0.4
G1 F300 Z0.2
G1 F1500 E16.47384
G1 F1200 X114.943 Y114.943 E16.48564
G0 F6000 X115.33 Y114.708
G1 F1200 X115.812 Y115.19 E16.51058
G0 F6000 X115.848 Y114.604
G1 F1200 X116.681 Y115.437 E16.55368
G0 F6000 X117.61 Y115.121
G1 F1200 X116.572 Y114.082 E16.60741
G0 F6000 X116.244 Y114.377
G1 F1200 X117.718 Y115.852 E16.6837
G0 F6000 X117.534 Y114.423
G1 F1200 X116.847 Y113.736 E16.71925
G0 F6000 X117.123 Y113.39
G1 F1200 X117.576 Y113.843 E16.74268
G0 F6000 X117.619 Y113.264
G1 F1200 X117.4 Y113.044 E16.75404
G1 F1500 E14.75404
G1 F300 Z0.4
G0 F6000 X119.241 Y105.83 Z0.4
G1 F300 Z0.2
G1 F1500 E16.75404
G1 F1200 X119.244 Y101.997 E16.89428
G1 X120.774 Y101.996 E16.95025
G1 X121.111 Y102.09 E16.96305
G1 X120.876 Y102.281 E16.97413
G1 X120.401 Y102.839 E17.00094
G1 X119.241 Y105.83 E17.11831
G1 F1500 E15.11831
G1 F300 Z0.4
G0 F6000 X119.671 Y104.115 Z0.4
G1 F300 Z0.2
G1 F1500 E17.11831
G1 F1200 X119.462 Y103.906 E17.12913
G0 F6000 X119.845 Y103.667
G1 F1200 X119.463 Y103.284 E17.14892
G0 F6000 X120.019 Y103.218
G1 F1200 X119.463 Y102.662 E17.17769
G0 F6000 X119.64 Y102.217
G1 F1200 X120.193 Y102.77 E17.2063
G0 F6000 X120.467 Y102.422
G1 F1200 X120.262 Y102.217 E17.21691
G1 F1500 E15.21691
G1 F300 Z0.4
G0 F6000 X100.752 Y105.869 Z0.4
G1 F300 Z0.2
G1 F1500 E17.21691
G1 F1200 X100.681 Y105.615 E17.22655
G1 X99.595 Y102.84 E17.33558
G1 X99.12 Y102.285 E17.36231
G1 X98.76 Y102.082 E17.37743
G1 X99.213 Y101.996 E17.3943
G1 X100.752 Y101.996 E17.4506
G1 X100.752 Y105.869 E17.5923
G1 F1500 E15.5923
G1 F300 Z0.4
G0 F6000 X100.532 Y104.266 Z0.4
G1 F300 Z0.2
G1 F1500 E17.5923
G1 F1200 X100.297 Y104.031 E17.60446
G0 F6000 X100.532 Y103.643
G1 F1200 X99.897 Y103.008 E17.63731
G0 F6000 X100.532 Y103.021
G1 F1200 X99.728 Y102.217 E17.67891
G0 F6000 X100.35 Y102.217
G1 F1200 X100.532 Y102.399 E17.68833
G1 F1500 E15.68833
G1 F300 Z0.4
;MESH:BraquetMotorProFast-BraquetMotor001BraquetMotor.stl(1)
G0 F6000 X112.074 Y103.054 Z0.4
;TYPE:WALL-INNER
G1 F300 Z0.2
G1 F1500 E17.68833
G1 F806.1 X112.136 Y102.736 E17.70598
G1 F1047.6 X112.404 Y102.357 E17.72543
G1 F1419.4 X112.747 Y101.061 E17.7669
G1 F1269.2 X113.621 Y99.351 E17.83333
G1 F1200 X114.853 Y97.798 E17.90585
G1 X115.2 Y97.579 E17.92086
G1 X115.62 Y97.496 E17.93653
G1 X126.12 Y97.496 E18.32068
G1 X126.54 Y97.578 E18.33634
G1 X126.898 Y97.805 E18.35185
G1 X128.119 Y99.352 E18.42395
G1 F1269.2 X128.993 Y101.06 E18.49032
G1 F1415.5 X129.336 Y102.363 E18.53211
G1 F1041.4 X129.605 Y102.741 E18.55166
G1 X129.679 Y102.284 E18.57118
G1 F1360.8 X129.431 Y101.075 E18.611
G1 F1227.9 X129.252 Y100.12 E18.64574
G1 F1200 X129.022 Y97.18 E18.75363
G1 X129.032 Y96.929 E18.76282
G1 X129.308 Y95.125 E18.82959
G1 X129.445 Y94.665 E18.84715
G1 X127.512 Y95.527 E18.92459
G1 X124.912 Y96.274 E19.02356
G1 X122.22 Y96.652 E19.12301
